X:1
T:Bath Medley

M:6/8

L:1/8

R:Jig

S:O’Farrell – Pocket Companion, vol. II (c. 1806)

Z:AK/Fiddler’s Companion

K:G

D | G2g fed | efg dBG | ecA dBG | F2G AFD | G2g fed | efg dBG |

ecA dBG | DEF G2 :: g | f2g afd | e2f g3 | B2c dBG |

           

BATH MINUET [1]. AKA – “New Bath Minuet.” English, Minuet (3/4 time). D Major. Standard tuning. AABB. “Bath Minuet [1]” was published by London publisher Robert Bremner in his Compleat Tutor for the Flute (c. 1765), actually a primer for the recorder, and in David Rutherford’s Art of Playing the Violin (London, 1755). The tune was transcribed by John Ormsby (as “New Bath Minuet”) in Annapolis, Maryland, dated around 1758, in a music manuscript now at the New York Public Library. See note for “Bath Medley” for more on Bath. Source for notated version: the music manuscript of Captain George Bush (1753?-1797), a fiddler and officer in the Continental Army during the American Revolution [Keller]. Keller (Fiddle Tunes from the American Revolution), 1992; pg. 11.

 

BATH MINUET [2]. English, Minuet (3/4 time). G Major. Standard tuning. AABB. The melody appears in the music manuscript copybook of fiddler John Burks, dated 1821. Unfortunately, nothing is known of Burks, although he may have been from the north of England. Burks included a bass line underneath the melody.

